images/cvlinks/npm.svg

<svg width="31" height="13" viewBox="0 0 31 13" fill="none" xmlns="http://www.w3.org/2000/svg">
    <path d="M0 0.780029H30.8682V11.063H15.4341V12.78H8.57556V11.063H0V0.780029ZM1.71704 9.35559H5.14148V4.20447H6.85852V9.35559H8.57556V2.49707H1.71704V9.35559ZM10.2926 2.49707V11.063H13.717V9.35559H17.1511V2.49707H10.2926ZM13.717 4.20447H15.4341V7.63855H13.717V4.20447ZM18.8682 2.49707V9.35559H22.2926V4.20447H24.0096V9.35559H25.7267V4.20447H27.4341V9.35559H29.1511V2.49707H18.8682Z"
          fill="#2F495E"/>
</svg>

<svg width="31" height="13" viewBox="0 0 31 13" fill="none" xmlns="http://www.w3.org/2000/svg"><path d="M0 .78h30.868v10.283H15.434v1.717H8.576v-1.717H0V.78zm1.717 8.576h3.424V4.204H6.86v5.152h1.717V2.497h-6.86v6.859zm8.576-6.859v8.566h3.424V9.356h3.434V2.497h-6.858zm3.424 1.707h1.717V7.64h-1.717V4.204zm5.151-1.707v6.859h3.425V4.204h1.717v5.152h1.717V4.204h1.707v5.152h1.717V2.497H18.868z" fill="#2F495E"/></svg>
